X:1
T:Title
%%score { ( 1 3 4 ) | ( 2 5 ) }
L:1/8
Q:1/4=106
M:4/4
K:F
V:1 treble nm="Grand Piano"
V:3 treble 
V:4 treble 
V:2 bass 
V:5 bass 
V:1
 F3 G A2 B2 | c2 d2 c4 | z B3- B4 | z A3- A3 z | F3 G A2 B2 | c2 d2 c4 | c e3 d2 d2 | [Ec]6 z2 | %8
w: E.~S.~Lorenz * * *||||||||
 [EB]3 [_EA] [=EB]2 [EG]2 | [DF]2 [EG]2 A4 | c3 =B c2 A2 | [FG]2 [FA]2 [EG]4 | F3 G A2 B2 | %13
w: |||||
 c2 d2 c4 | [Dc]2 [DB]2 [EG]2 [EG]2 | F6 z2 | z c3- c2 z2 | z d3- d2 z2 | dccc B2 A2 | [EG]6 z2 | %20
w: |||||||
 F3 G A2 B2 | c2 d2 c4 | [Dc]2 [DB]2 [EG]2 [EG]2 |[M:8/4] F8 z8 |] %24
w: ||||
V:2
 [F,A,]3 [F,B,E][K:treble] [F,CF]2 [G,CE]2 | [A,CF]2 [B,F]2 [F,A,F]4 | %2
 [C,G,][C,G,][C,G,][C,G,] G,2 z2 | [F,DF][F,CF][F,C][F,C] [F,C]4 | %4
 [F,A,]3 [F,B,E][K:treble] [F,CF]2 [G,CE]2 | [A,CF]2 [B,F]2 [F,A,F]4 | %6
 [G,E] [G,CG]3 [G,CF]2 [G,=B,F]2 | [C,C]6 z2 | [C,G,]3 [C,^F,] [C,G,]2 [C,B,]2 | %9
 [D,A,]2 [C,C]2[K:treble] [F,CF]4 | [A,CF]3 [_A,DF] [=A,CF]2 [F,CF]2 | [D,=B,]2 [G,B,]2 [C,C]4 | %12
 [F,A,]3 [F,B,E][K:treble] [F,CF]2 [G,CE]2 | [A,CF]2 [B,F]2 [F,A,F]4 | %14
 [B,,G,]2 [B,,G,]2 [C,G,]2 [C,B,]2 | [F,A,]6 z2 | %16
 [F,CF][F,A,F][F,A,][F,A,] [F,A,]2[K:treble] [F,CF]2 | [B,DF][B,F]B,B, B,2 z2 | %18
 [F,B,F][F,A,F][F,A,F][A,CF] [G,CE]2[K:bass] [F,CF]2 | [C,C]6 z2 | %20
 [F,A,]3 [F,B,E][K:treble] [F,CF]2 [G,CE]2 | [A,CF]2 [B,F]2 [F,A,F]4 | %22
 [B,,G,]2 [B,,G,]2 [C,G,]2 [C,B,]2 |[M:8/4] [F,A,]8 z8 |] %24
V:3
 x8 | x8 | [Ec]EEE z2 C2 | .B2 FF F4 | x8 | x8 | x8 | x8 | x8 | x8 | x8 | x8 | x8 | x8 | x8 | x8 | %16
 .A2 FF F2 A2 | .B2 FF F2 z2 | x8 | x8 | x8 | x8 | x8 |[M:8/4] x16 |] %24
V:4
 x8 | x8 | z4 E4 | x8 | x8 | x8 | x8 | x8 | x8 | x8 | x8 | x8 | x8 | x8 | x8 | x8 | x8 | x8 | x8 | %19
 x8 | x8 | x8 | x8 |[M:8/4] x16 |] %24
V:5
 x4[K:treble] x4 | x8 | z4 C,4 | x8 | x4[K:treble] x4 | x8 | x8 | x8 | x8 | x4[K:treble] x4 | x8 | %11
 x8 | x4[K:treble] x4 | x8 | x8 | x8 | x6[K:treble] x2 | x8 | x6[K:bass] x2 | x8 | %20
 x4[K:treble] x4 | x8 | x8 |[M:8/4] x16 |] %24

